X: 1127
T: Polska efter Troskari Erik
S: efter Troskari Erik
O: Malung, Dalarna
R: Polska
M: 3/4
L: 1/8
K: Ador
E>e- e>d e>B | c>B c<e B2 | A>^G A<B c>B | A>c B<^G E2- |
E>e- e>d e>B | c>B c<e B2 | A>^G A<B c>e | ^G<B A4 :|
|: A>^G E<G A>B | c>B A<c B2 | A>^G E<G A>B | c>B c<e B2 |
A>^G E<G A>B | c>B A<c B2 | A>^G A<B c>e | ^G<B A4 :|
(:musicend:)

%green% Handlar det om [[Personer/Troskari Erik Persson]]?
(:music:)
